assets/img/tick-square.svg

<svg width="22" height="22" viewBox="0 0 22 22" fill="none" xmlns="http://www.w3.org/2000/svg">
<path fill-rule="evenodd" clip-rule="evenodd" d="M6.12 0H15.4781C19.1371 0 21.5873 2.56889 21.5873 6.38984V15.2093C21.5873 19.0184 19.1371 21.5873 15.4781 21.5873H6.12C2.46095 21.5873 0 19.0184 0 15.2093V6.38984C0 2.56889 2.46095 0 6.12 0ZM10.1783 14.0211L15.3053 8.89408C15.6722 8.5271 15.6722 7.93344 15.3053 7.55567C14.9383 7.18868 14.3338 7.18868 13.9669 7.55567L9.50908 12.0134L7.62019 10.1246C7.2532 9.75757 6.64876 9.75757 6.28178 10.1246C5.91479 10.4915 5.91479 11.0852 6.28178 11.463L8.85066 14.0211C9.03416 14.2046 9.27162 14.2909 9.50908 14.2909C9.75733 14.2909 9.99479 14.2046 10.1783 14.0211Z" fill="#FF5B35"/>
</svg>

<svg xmlns="http://www.w3.org/2000/svg" width="22" height="22" fill="none"><path fill="#FF5B35" fill-rule="evenodd" d="M6.12 0h9.358c3.66 0 6.11 2.569 6.11 6.39v8.82c0 3.808-2.45 6.377-6.11 6.377H6.12C2.461 21.587 0 19.018 0 15.21V6.39C0 2.57 2.461 0 6.12 0m4.058 14.021 5.127-5.127a.95.95 0 0 0 0-1.338.95.95 0 0 0-1.338 0l-4.458 4.457-1.889-1.888a.95.95 0 0 0-1.338 0 .95.95 0 0 0 0 1.338l2.569 2.558c.183.184.42.27.658.27a.93.93 0 0 0 .67-.27" clip-rule="evenodd"/></svg>
